src/img/confirmación.svg

<svg width="22" height="21" viewBox="0 0 22 21" fill="none" xmlns="http://www.w3.org/2000/svg">
<path d="M11 0.492188C9.625 0.492188 8.32812 0.757812 7.10938 1.28906C5.89062 1.80469 4.82812 2.51562 3.92188 3.42188C3.01562 4.32812 2.30469 5.39062 1.78906 6.60938C1.25781 7.82812 0.992188 9.125 0.992188 10.5C0.992188 11.875 1.25781 13.1719 1.78906 14.3906C2.30469 15.6094 3.01562 16.6719 3.92188 17.5781C4.82812 18.4844 5.89062 19.1953 7.10938 19.7109C8.32812 20.2422 9.625 20.5078 11 20.5078C12.375 20.5078 13.6719 20.2422 14.8906 19.7109C16.1094 19.1953 17.1719 18.4844 18.0781 17.5781C18.9844 16.6719 19.6953 15.6094 20.2109 14.3906C20.7422 13.1719 21.0078 11.875 21.0078 10.5C21.0078 9.125 20.7422 7.82812 20.2109 6.60938C19.6953 5.39062 18.9844 4.32812 18.0781 3.42188C17.1719 2.51562 16.1094 1.80469 14.8906 1.28906C13.6719 0.757812 12.375 0.492188 11 0.492188ZM9.52344 14.4844C9.46094 14.4844 9.39844 14.4766 9.33594 14.4609C9.27344 14.4297 9.21875 14.3906 9.17188 14.3438L6.17188 11.3438C6.0625 11.25 6 11.1406 5.98438 11.0156C5.98438 10.875 6.03125 10.75 6.125 10.6406C6.21875 10.5469 6.33594 10.5 6.47656 10.5C6.61719 10.4844 6.73438 10.5234 6.82812 10.6172C6.84375 10.6172 6.85156 10.625 6.85156 10.6406C6.85156 10.6406 6.85938 10.6406 6.875 10.6406L9.52344 13.2891L15.2422 7.64062C15.3516 7.54688 15.4688 7.5 15.5938 7.5C15.7344 7.5 15.8516 7.55469 15.9453 7.66406C16.0391 7.75781 16.0859 7.875 16.0859 8.01562C16.0859 8.14062 16.0391 8.25 15.9453 8.34375L9.875 14.3438C9.82812 14.3906 9.77344 14.4297 9.71094 14.4609C9.64844 14.4766 9.58594 14.4844 9.52344 14.4844Z" fill="#008859"/>
</svg>

<svg width="22" height="21" fill="none" xmlns="http://www.w3.org/2000/svg"><path d="M11 .492a9.63 9.63 0 00-3.89.797 9.93 9.93 0 00-3.188 2.133 9.93 9.93 0 00-2.133 3.187A9.63 9.63 0 00.992 10.5a9.63 9.63 0 00.797 3.89 9.928 9.928 0 002.133 3.188 9.928 9.928 0 003.187 2.133 9.63 9.63 0 003.891.797 9.63 9.63 0 003.89-.797 9.927 9.927 0 003.188-2.133 9.927 9.927 0 002.133-3.187 9.63 9.63 0 00.797-3.891 9.63 9.63 0 00-.797-3.89 9.928 9.928 0 00-2.133-3.188 9.928 9.928 0 00-3.187-2.133A9.63 9.63 0 0011 .492zM9.523 14.484a.767.767 0 01-.187-.023.626.626 0 01-.164-.117l-3-3a.509.509 0 01-.188-.328.56.56 0 01.141-.375.477.477 0 01.352-.141.408.408 0 01.351.117c.016 0 .024.008.024.024h.023l2.648 2.648 5.72-5.648a.532.532 0 01.35-.141c.141 0 .259.055.352.164.094.094.14.211.14.352a.45.45 0 01-.14.328l-6.07 6a.626.626 0 01-.164.117.767.767 0 01-.188.023z" fill="#008859"/></svg>
